X:879
T:The Row
R:Reel
B:The Athole Collection
M:C|
L:1/8
K:D
A|d2dA BdAF|Eeed cABc|dfce BdAF|Agfe fdd:|
|:f|ddfd adfd|Ag f/g/a feef|gbfa ecBA|Bgfe fdd:|

